X: 3108
T: BRANDLINGS
Q:"Reel."
R: Reel.
%R:reel
B: James Kerr "Merry Melodies" v.3 p.13 #108
Z: 2016 John Chambers <jc:trillian.mit.edu>
M: C
L: 1/8
K: A
   f |\
   eA A/A/A (eA)cA | efga fedc |\
[1 fB B/B/B (fB)dB | fefg bagf :|\
[2 defg abaf | ecac (e2A) ||
|: f |\
   eAcA cecA | aAgA  fAeA |\
[1 fBdB dfdB | bBaB  gBfB :|\
[2 defg abaf | ecac (e2A) |]

%%sep 1 1 500
%%sep 1 1 500

